X:4903
T:P\`adraic Mac Giollarn\'ath
O:england
C:Trad
R:Jig
M:6/8
K:DMix
L:1/8
A2d cAG|Add cAG|GFD DED|GFD DED|A2d cAG|Ad^c d2e|fed cAG|Ad^c d2 :|
e|: f2f fed|efe f2e|dcd def|edB ABd|f2f fed|efe efg|fed cAG|Ad^c d2 :|


